src/lib/packages/icons/src/assets/line/road.svg

<svg width="24" height="24" viewBox="0 0 24 24" fill="none" xmlns="http://www.w3.org/2000/svg">
<path d="M12.75 10.5V13.5C12.75 13.914 12.414 14.25 12 14.25C11.586 14.25 11.25 13.914 11.25 13.5V10.5C11.25 10.086 11.586 9.75 12 9.75C12.414 9.75 12.75 10.086 12.75 10.5ZM21.033 19.5349C20.413 20.3069 19.489 20.75 18.499 20.75H5.50101C4.51101 20.75 3.587 20.3069 2.967 19.5349C2.347 18.7629 2.114 17.7651 2.328 16.7981L4.675 6.18994C5.07 4.40394 6.423 3.25 8.123 3.25H15.878C17.578 3.25 18.931 4.40394 19.326 6.18994L21.673 16.7981C21.886 17.7651 21.653 18.7629 21.033 19.5349ZM20.208 17.1221L17.861 6.51392C17.617 5.40892 16.876 4.75 15.878 4.75H12.751V7C12.751 7.414 12.415 7.75 12.001 7.75C11.587 7.75 11.251 7.414 11.251 7V4.75H8.12399C7.12599 4.75 6.38501 5.40892 6.14101 6.51392L3.79401 17.1221C3.67901 17.6431 3.804 18.1799 4.138 18.5959C4.471 19.0119 4.969 19.25 5.502 19.25H11.251V17C11.251 16.586 11.587 16.25 12.001 16.25C12.415 16.25 12.751 16.586 12.751 17V19.25H18.5C19.033 19.25 19.531 19.0119 19.864 18.5959C20.197 18.1799 20.323 17.6431 20.208 17.1221Z" fill="currentColor"/>
</svg>

<svg xmlns="http://www.w3.org/2000/svg" width="24" height="24" fill="none"><path fill="currentColor" d="M12.75 10.5v3a.75.75 0 0 1-1.5 0v-3a.75.75 0 0 1 1.5 0Zm8.283 9.035a3.236 3.236 0 0 1-2.534 1.215H5.501c-.99 0-1.914-.443-2.534-1.215a3.235 3.235 0 0 1-.639-2.737L4.675 6.19c.395-1.786 1.748-2.94 3.448-2.94h7.755c1.7 0 3.053 1.154 3.448 2.94l2.347 10.608a3.238 3.238 0 0 1-.64 2.737Zm-.825-2.413L17.861 6.514c-.244-1.105-.985-1.764-1.983-1.764h-3.127V7a.75.75 0 0 1-1.5 0V4.75H8.124c-.998 0-1.739.659-1.983 1.764L3.794 17.122c-.115.521.01 1.058.344 1.474a1.74 1.74 0 0 0 1.364.654h5.749V17a.75.75 0 0 1 1.5 0v2.25H18.5a1.74 1.74 0 0 0 1.364-.654c.333-.416.459-.953.344-1.474Z"/></svg>
